!!!OTL: Glaubens - Einheit.
!!!OTL-incipit: WIR GLAUBEN ALL AN EINEN GOTT
!!!ARE: Europa, Mitteleuropa, Deutschland
!!!SCT: Z1119
!!!TXL: @@DE
!!!YEM: Copyright 1995, estate of Helmut Schaffrath.
**kern	**text
*ICvox	*
*M4/4	*
*met(c)	*
*k[]	*
!LO:TX:a:t=Nach Martin Luther.	!
{4d	Wir
=1	=1
4a	glau-
4g	-ben
4a	all'
4e	an
=2	=2
4f	ei-
4e	-nen
2d;}	Gott,
=3	=3
{4a	Schöpfer
4a	.
4dd/	Him-
4cc/	-mels
=4	=4
4b/	und
8aL	der
8bJ	.
(>4cc/	Er-
4b/)	.
=5	=5
2.a;}	-den,
{4b/	der
=6	=6
4cc	ſich
4a	ʒum
4a	Va-
4g	-ter
=7	=7
4a	ge-
4f	-ben
2e;}	hat,
=8	=8
{4d	daß
4e	wir
4f	ſei-
4g	-ne
=9	=9
4a	Kinder
4g	.
(4f	wer-
4e)	.
=10	=10
2d;}	-den,
{4dd/	er
4dd/	will
=11	=11
4ee/	uns
4dd/	all-
8cc/L	-ʒeit
8bJ	.
4a	er-
=12	=12
4dd/	-näh-
4cc#/	.
2dd/;}	-ren,
=13	=13
{4ee/	Leib
4b/	und
4ccn/	Seel'
4a	auch
=14	=14
4a	wohl
4e	be-
2f	-wah-
=15	=15
2e;}	-ren;
{4a	al-
4g	-lem
=16	=16
4a	Un-
4b/	-fall
4cc/	will
4b/	er
=17	=17
(>4a	weh-
4g#)	.
2a}	-ren,
=18	=18
{4b/	kein
4dd/	Leid
4a	ſoll
4g	uns
=19	=19
4a	wi-
4e	-der-
2f	-fah-
=20	=20
2.e;}	-ren,
{4g	er
=21	=21
4f	ſor-
4e	-get
4d	für
4e	uns,
=22	=22
4f	hüt't
4g	und
4a;}	wacht,
{4e	es
=23	=23
4f	ſteht
4g	Al-
4a	-les
4g	in
=24	=24
4f	ſei-
4e	-ner
4d;}	Macht!
==	==
!!!AGN: religioeses Lied
!!!ONB: ESAC (Essen Associative Code) Database: ZUCCAL
!!!AMT: simple quadruple
!!!AIN: vox
!!!EED: Helmut Schaffrath
!!!EEV: 1.0
!!!GTL: III. Haus- Andacht.
!!!URL-scan: https://www.digitale-sammlungen.de/de/view/bsb11160573?page=258
!!!ENC: Anna Maria Matuszewska
!!!EEV: 2025/02/04
*-	*-
